X: 147
T:Ma Avarech
O:Israeli
C:Ya'ir Rosenblum 1970
F: http://www.youtube.com/watch?v=BgYBqwBm8dU
F: http://www.youtube.com/watch?v=nyDhfsk7iz4
F: http://www.youtube.com/watch?v=APIhWel1-SY
L:1/8
M:4/4
Q:1/4=96
K:Em
|: "Em"E2 BA "Em"B2 cB| "Am"AA GA-"Am"A2 Bc | "G"dcBA "Em"G2 F2  |\
  [1 "Em"E8          :|[2 "Em"E6 FG         |"D"A3 F "Em"BAGF    |
 "Em"GE EE-"Em"E2 EG  |"Am"A2 AGB"D"A GF    | "Em"G6 "Em"Bc      |\
 "Em"e2 fd "G"d2 B2   | "Am"c2 dc "Em"B2 G2 | "Am"A2 BA "D"F2 E2 | "Em"E8|



